X: 10007
T: Devlin's
R: jig
M: 6/8
K: Bminor
B/c/|:d2 B BAB|F2 B B2c|dcd Bed|cBc ABc|
dcd ede|f2 b afe|dcB AFE|1 FBB B2 B/c/:|2 FBB B2 d/f/||
|:a3 f3|e3 cBA|c2 A cBA|cde f2 e|
d2 B BAB|F2 B Bcd|efg fef|1 dBB B2 d/f/:|2 dBB B2 B/c/||

